img/search-icon.svg

<svg width="18" height="18" viewBox="0 0 18 18" fill="none" xmlns="http://www.w3.org/2000/svg">
<path fill-rule="evenodd" clip-rule="evenodd" d="M17.4354 16.3951L13.146 11.9395C14.2489 10.6301 14.8532 8.98262 14.8532 7.26749C14.8532 3.26026 11.5889 0 7.5766 0C3.56435 0 0.300003 3.26026 0.300003 7.26749C0.300003 11.2747 3.56435 14.535 7.5766 14.535C9.08286 14.535 10.5182 14.0812 11.7455 13.2199L16.0674 17.7093C16.2481 17.8967 16.4911 18 16.7514 18C16.9979 18 17.2317 17.9062 17.4092 17.7355C17.7863 17.3731 17.7983 16.7721 17.4354 16.3951ZM7.5766 1.89587C10.5423 1.89587 12.955 4.30552 12.955 7.26749C12.955 10.2295 10.5423 12.6391 7.5766 12.6391C4.61091 12.6391 2.19825 10.2295 2.19825 7.26749C2.19825 4.30552 4.61091 1.89587 7.5766 1.89587Z" fill="#BCBFC2"/>
</svg>

<svg width="18" height="18" fill="none" xmlns="http://www.w3.org/2000/svg"><path fill-rule="evenodd" clip-rule="evenodd" d="M17.435 16.395l-4.289-4.455a7.238 7.238 0 001.707-4.673C14.853 3.26 11.59 0 7.577 0 3.564 0 .3 3.26.3 7.267c0 4.008 3.264 7.268 7.277 7.268a7.206 7.206 0 004.168-1.315l4.322 4.49c.181.187.424.29.684.29a.948.948 0 00.684-1.605zm-9.858-14.5a5.381 5.381 0 015.378 5.372 5.381 5.381 0 01-5.378 5.372 5.381 5.381 0 01-5.379-5.372 5.381 5.381 0 015.379-5.371z" fill="#BCBFC2"/></svg>
